X:10797
T:Miller's Maggot, The
R:single jig
S:J\"orgen Fischer
Z:hn-slide-59
M:6/8
K:G
G2A ~B2A|~B2A BGE|G2A ~B2A|B2e edB|G2A ~B2A|~B2A BGE|gfe dBA|Bee edB:|
|:e2f g2e|d2B BAG|e2f ~g3|aga bge|e2f g2e|d2B BAG|A2B cBA|Bee edB:|
